dist/img/blog/1.svg

<svg width="25" height="25" viewBox="0 0 25 25" fill="none" xmlns="http://www.w3.org/2000/svg">
<path d="M20.4852 4.24453C20.6019 4.05785 20.5552 3.80116 20.3919 3.63791C20.1585 3.42795 19.8086 3.49793 19.6452 3.75461C19.6452 3.75461 17.5453 7.23132 16.9385 8.21127C16.8452 8.35125 16.6585 8.39796 16.5185 8.32797C16.3786 8.23471 16.3086 8.04802 16.4018 7.90806C16.9619 6.88135 18.8986 3.33472 18.8986 3.33472C19.0386 3.07805 18.9219 2.75139 18.6186 2.63468C18.4087 2.5647 18.1753 2.65796 18.0586 2.84465L15.3519 7.30131C15.2586 7.44129 15.0719 7.488 14.932 7.41801C14.792 7.32475 14.722 7.13806 14.8153 6.9981C15.3753 5.97139 17.312 2.42476 17.312 2.42476C17.452 2.16809 17.3353 1.84143 17.0321 1.72472C16.8221 1.65473 16.5887 1.748 16.472 1.93468L13.6021 6.64802L13.2521 7.27806C12.8788 7.9081 12.7621 8.65468 12.9255 9.23802L13.2754 10.4979L12.3887 11.8046L9.58875 7.60456L5.8788 1.93456C5.71538 1.67788 5.34217 1.58463 5.0855 1.74787C4.29221 2.2145 3.96555 3.1712 4.29221 4.0112L6.97546 10.8712C7.41884 11.9679 8.72546 12.4345 9.75217 11.8512L10.1021 11.6645L11.1288 13.7412L6.08881 21.1845C5.57548 21.9778 5.80886 23.0278 6.62544 23.4946L6.76541 23.5878C7.58216 24.0544 8.63212 23.7512 9.02875 22.8878L12.3188 16.1444L15.7021 22.9344C16.122 23.7744 17.1487 24.1011 17.9654 23.6345L18.1054 23.5412C18.9221 23.0746 19.1788 22.0012 18.642 21.2312L13.5553 13.6012L14.652 11.3378L15.9119 11.0112C16.5186 10.8478 17.0786 10.3811 17.452 9.75127L17.8019 9.12123L20.4852 4.24453Z" fill="#202125"/>
</svg>

<svg width="25" height="25" viewBox="0 0 25 25" fill="none" xmlns="http://www.w3.org/2000/svg"><path d="M20.485 4.245c.117-.187.07-.444-.093-.607a.492.492 0 00-.747.117s-2.1 3.476-2.706 4.456a.335.335 0 01-.42.117c-.14-.093-.21-.28-.117-.42l2.497-4.573c.14-.257.023-.584-.28-.7a.488.488 0 00-.56.21L15.352 7.3a.335.335 0 01-.42.117c-.14-.093-.21-.28-.117-.42l2.497-4.573c.14-.257.023-.584-.28-.7a.488.488 0 00-.56.21l-2.87 4.713-.35.63c-.373.63-.49 1.377-.327 1.96l.35 1.26-.886 1.307-2.8-4.2-3.71-5.67c-.164-.257-.537-.35-.793-.187a1.846 1.846 0 00-.794 2.263l2.683 6.86c.444 1.097 1.75 1.563 2.777.98l.35-.187 1.027 2.077-5.04 7.444c-.514.793-.28 1.843.536 2.31l.14.093c.817.466 1.867.163 2.264-.7l3.29-6.744 3.383 6.79a1.626 1.626 0 002.263.7l.14-.093c.817-.466 1.074-1.54.537-2.31l-5.087-7.63 1.097-2.263 1.26-.327c.607-.163 1.167-.63 1.54-1.26l.35-.63 2.683-4.876z" fill="#202125"/></svg>
